!!!OTL: Musterung (248b), S. 531f
!!!id: T0437
**kern
*clefG2
*k[]
*G:
{8d
=1
16b
16b
16b
16b
8a
8a
=2
8g
8d
8d}
8r
=3
{4b
8a
8a
=4
4g}
8r
=5
{8b
=6
16g
16b
16b
16b
16g
16b
16b
8b
8a
=7
4a}
8r
=8
{8g
=9
16g
16g
16g
16g
16g
16g
16g
8g
8d
=10
4d}
4r
=11
{4g
8a
8a
=12
4b}
4r
=13
{4dd
8cc
8cc
=14
4b}
8r
==
*-
!!!minrhy: 16
!!!meters: 2/4 ]  ZZ[6
!!!cut: Musterung (248b), S. 531f
!!!reg: Luxemburg
!!!trd: Singendes Volk, Esch-Alzette, 1937 posth.
!!!rhy1: X_  XXXXX_X_  X_X_X_0_
!!!rhy2: X__X_X_  X__0_
!!!key: T0437  16  G 2/4 ]  ZZ[6
!!!mod: PENTATONIK DUR ?]  AMBITUS[8
!!!kad: -512-533
!!!akz: 31_31_32_1-5_13_53_
!!!fot: 'a__av_b__c__d__as'
!!!for: 'a__b__c__cv_bv_b__
!!!fok: '^__\__\__\__/__\__
!! PHRAS[GEMISCHTTAKTIG]
!!!fkt: Berufslied
!!!bem1: Heffingen, hhh Johann Gales, 30.8.1934;
!!!bem2: (249)- Liederheft, 148-51
!! THILL; Mathias
!! PR[35] 2K[4] 2G[9] 3K[4] 3G[5] 4A[2] 4Ü[0] 5A[0] 6K[0] 6G[0]
!! 7K[5] 7G[0] 8A[0] MEHR[0] SI[29] ABS[55] SR[13] SP[16]
!! ST[12] 2k[5] 2g[18] 3k[5] 3g[2] 4d[2] 4ü[0] 5d[2] 6k[0] 6g[0]
!! 7k[0] 7g[0] 8d[2] mehr[0] si[36] dm[-7] sr[24] sp[13]
!! 1F[41] 2F[55] 3F[3] 4F[0] LF[0] 2P[0] 3P[0] 4P[0] TRI[0] DF[3] AB[58]
!! TF[0] U3K[0] U3[0] U4[0] U4Ü[0] U5[11] U6K[0] U6[4] U7K[0] U7[7]
!! N1[18] N2K[0] N2[20] N3K[0] N3[21] N4[16] N4Ü[0] N5[4] N6K[0] N6[0]
!!!n7k: 0] N7[0] O1[0] O2K[0] O2[0] O3K[0] O3[0] HÖ[0
